X: 1
T: Blue Pool, The
M: 3/4
L: 1/8
R: mazurka
K: Gmaj
|:G>A|:B2 B>A G>B|d2 d>B G>B|c2 c>A F>A|d2 d>B G>A|
B2 B>A G>B|d2d>B G>B|c2 c>A F>A|1G4 G>A:|2G4 g>f||
|:e>c e>f g>e|d2 d>B G>B|c2 c>A F>A|d2 d>B G>g|
e>c e>f g>e|d2 d>B G>B|c2 c>A F>A|1 G4 g>f:|2G4 G>A||
|:_B2 _B>A G>_B|d2 d>_B  G>_B|c2 c>A  =F>A|d2 d>_B G>A|
_B2 _B>A G>_B|d2 d>_B G>_B|c2 c>A =F>A|1G4 G>A:|2G4 g>f||
|:e>c e>f g>e|d2 d>B G>B|c2 c>A F>A|d2 d>B G>g|
e>c e>f g>e|d2 d>B G>B|c2 c>A F>A|1 G4 g>f:|2G4 G>A||
